X: 32565
T: Planxty Hewlett
R: waltz
M: 3/4
K: Dmajor
V:1
D2 D2 FG|AB c2 A2|d2 f2 fg|fe d3 B|A2 F2 F2|G2 GB AG|
AF D2 D2|D6:|:A2 D2 AB|A2 D2 AB|A2 d2 d2|dc BA GF|
G2 [G,2G2] GA|G2 [G,2G2] GA|G2 GA BG|AF D2 D2|FE F2 G2|AB c2 A2|
fe fg ag|fe d3 B|A2 AB AF|G2 GB AG|AF D2 D2|D6:|
V:2
DFFA AB|cd AG EC|DF Ad AB|AG FA DG|FA DA dA|BDDG FE|
DA FA A,A|FG F2 A,2:|:DF A,FFG|DF A,FFG|FD AF BA|fe dc BA|
BE B,E Bc|BE B,E Bc|dB EF GE|FD A,F AB|AG FA dA|FG AE CE|
DC DE FE|DG B2 G2|F2 FG FD|B,DDG FE|DA FA A,G|FG FE F2:|

